icon-themes/breeze_svg/cmd/32/togglegridhorizontal.svg

<svg viewBox="0 0 32 32" xmlns="http://www.w3.org/2000/svg"><path d="m4 8v1h24v-1zm0 5v1h24v-1zm0 4v1h24v-1zm0 4v1h24v-1z" fill="#1d99f3"/><path d="m6 4v21h-2v1h2v2h1v-2h21v-1h-21v-21z" fill="#4d4d4d"/></svg>

<svg xmlns="http://www.w3.org/2000/svg" viewBox="0 0 32 32">
 <path 
     style="fill:#1d99f3" 
     d="M 4 8 L 4 9 L 28 9 L 28 8 L 4 8 z M 4 13 L 4 14 L 28 14 L 28 13 L 4 13 z M 4 17 L 4 18 L 28 18 L 28 17 L 4 17 z M 4 21 L 4 22 L 28 22 L 28 21 L 4 21 z "
     />
 <path 
     style="fill:#4d4d4d" 
     d="M 6 4 L 6 25 L 4 25 L 4 26 L 6 26 L 6 28 L 7 28 L 7 26 L 28 26 L 28 25 L 7 25 L 7 4 L 6 4 z "
     />
</svg>
